X:18309
T:Viniendo de Maliayo
R:Marcha
C:Tradicional
S:Msica Tradicional Asturiana, (C) Tello & Tito. Asturies, 2001.
S:http://pagina.de/MusTradAst <telloytito@asturies.org>
A:Asturies
M:2/4
L:1/8
Q:1/4=120
K:C
CE|:G3G|A3B|A2 G/A/G/F/|EG CE|
G3G|AG FE|D2 D/C/D/E/|D2 CE|
G3G|A3B|A2 G/A/G/F/|EC Gc|
B3A|GA G/A/G/F/|E4 -|[1 E2 CE:|[2 E2 Gc|
|:d3c|Bc BA|G2 G/A/G/ F/|EG cA|
d3c|Bc BA|G2 G/A/G/ F/|EG AG|
B3A|GA G/A/G/F/|E2 E/D/E/F/|G2 AG|
B3A|GA G/A/G/F/|E4 -|E2 CE:||
